!!!!SEGMENT: pl-wnifc--6803-n--001_tymolski-fabian--mazury-na-peronie-op-142-wstep.krn
!!!cenid: 18xx:3992
!!!COM: Tymolski, Fabian
!!!COM-rismID: pe30006748
!!!CDT: 1828/01/14-1885
!!!CNT:
!!!OPR: Mazury „Na Peronie” op. 142
!!!OTL: Wstęp
!!!OMV: 001
!!!PDT:
!!!AGN:
!!!SMS-siglum: PL-Wnifc
!!!SMS-shelfmark: 6803/n
!!!SMS-shelfwork: M
!!!SMS-variant:
!!!SMS-altvar:
!!!NIFC-rismSourceID: 1001158046
!!!NIFC-rismChildID: 1001158236
!!!NIFC-islandoraID: nifc:213566
!!!URL-pdf-islandora: https://repozytorium.nifc.pl/islandora/object/nifc%3A213566/datastream/PDF/view
!!!URL-scan: https://polish.musicsources.pl/pl/lokalizacje/galeria/druki-muzyczne/16923 @EN{Scan on Polish Music Sources Website} @PL{Skany w portalu Dziedzictwo Muzyki Polskiej w otwartym dostępie}
!!!ONB-nifc: UWAGA: części: 1. Wstęp, 2. Mazur No. 1, 3. Mazur No. 2, 4. Mazur No. 3, 5. Zakończenie
!!!AIN: 2 piano
!!!key: D
**kern	**dynam	**kern	**dynam
*part2	*part2	*part1	*part1
*staff2	*	*staff1	*
*I"[Piano]	*	*I"[Piano]	*
*I'pf	*	*I'pf	*
*ICklav	*	*ICklav	*
*Ipiano	*	*Ipiano	*
*clefF4	*	*clefG2	*
*k[f#c#]	*	*k[f#c#]	*
*D:	*	*D:	*
*M2/4	*	*M2/4	*
=1	=1	=1	=1
!	!	!LO:TX:b:t=Kolei\n(sygnały odjazdw.)	!
2r;	.	2r;	.
=2	=2	=2	=2
.	.	8qg#X/	p
8AA\ 8A	.	8a/	.
!	!	!LO:TX:b:i:t=parowiec.	!
!	!	!LO:TX:a:i:t=poco a poco	!
8r	.	8r	.
4r	.	4r	.
=3	=3	=3	=3
.	.	8qg#X/	.
8AA\ 8A	.	8a/	.
8r	.	8r	.
4r	.	4r	.
=4	=4	=4	=4
.	.	8qg#X/	.
8AA\ 8A	.	8a/	.
8r	.	8r	.
.	.	8qg#/	.
8AA\ 8A	.	8a/	.
8r	.	8r	.
=5	=5	=5	=5
.	.	8qg#X/	.
8AA\ 8A	.	8a/	.
8r	.	8r	.
.	.	8qg#/	.
8AA\ 8A	.	8a/	.
8r	.	8r	.
=6	=6	=6	=6
!	!	!LO:TX:b:t=cre_scen_do:dur=15e:ext=ud:problem:text with extention lines	!
.	.	8qg#X/	<
8AA\ 8A	.	8a/L	.
.	.	8qg#/	.
8r	.	8a/	.
.	.	8qg#/	.
8AA\ 8A	.	8a/	.
.	.	8qg#/	.
8r	.	8a/J	.
!!LO:LB:g=original	!	!	!
=7	=7	=7	=7
.	.	8qg#X/	.
8AA\ 8A	.	8a/L	.
.	.	8qg#/	.
8r	.	8a/	.
.	.	8qg#/	.
8AA\ 8A	.	8a/	.
.	.	8qg#/	.
8r	.	8a/J	.
=8	=8	=8	=8
.	.	8qg#X/	.
8AA\ 8A	.	8a/L	.
.	.	8qg#/	.
8r	.	8a/	.
.	.	8qg#/	.
8AA\ 8A	.	8a/	.
.	.	8qg#/	.
8r	.	8a/J	.
=9	=9	=9	=9
.	.	8qg#X/	.
8AA\ 8A	.	8a/L	.
.	.	8qg#/	.
8r	.	8a/	.
.	.	8qg#/	.
8AA\ 8A	.	8a/	[[
.	.	8qg#/	.
8r	.	8a/J	.
=10	=10	=10	=10
!	!	!LO:TX:a:B:t=Allegro.	!
8D\ 8F# 8A	.	8dd'\L	p
8r	.	8ee'\	.
8D\ 8F# 8A	.	8ff#'\	.
8r	.	8gg'\J	.
=11	=11	=11	=11
.	.	8qbb/	.
8D\ 8F# 8A	.	8aa\L	.
8r	.	8gg#X\J	.
8D\ 8F# 8A	.	8aa\L	.
8r	.	8ff#\J	.
=12	=12	=12	=12
.	.	8qbb/	.
8D\ 8F# 8A	.	8aa\L	.
8r	.	8gg#X\J	.
8D\ 8F# 8A	.	8aa\L	.
8r	.	8ff#\J	.
!!LO:LB:g=original	!	!	!
=13	=13	=13	=13
.	.	8qbb/	.
8D\ 8F# 8A	.	8aa\L	.
8r	.	8gg#X\J	.
8D\ 8F# 8A	.	8aa\L	.
8r	.	8ff#\J	.
=14	=14	=14	=14
8D\ 8G 8A	.	8aa\L	.
8r	.	8gg\	.
8D\ 8G 8A	.	8ff#\	.
8r	.	8ee\J	.
=15	=15	=15	=15
.	.	8qee/	.
8D\ 8F# 8A	.	8dd\L	.
8r	.	8cc#\J	.
8D\ 8F# 8A	.	8dd\L	.
8r	.	8a\J	.
=16	=16	=16	=16
.	.	8qff#/	.
8D\ 8G 8A	.	8ee\L	.
8r	.	8dd#X\J	.
8D\ 8G 8A	.	8ee\L	.
8r	.	8a\J	.
=17	=17	=17	=17
.	.	8qgg/	.
8D\ 8F# 8A	.	8ff#\L	.
8r	.	8ee#X\J	.
8D\ 8F# 8A	.	8ff#\L	.
8r	.	8bb\J	.
=18	=18	=18	=18
8D\ 8G 8A	.	8aa'\L	.
8r	.	8gg'\	.
8D\ 8G 8A	.	8ff#'\	.
8r	.	8ee'\J	.
=19	=19	=19	=19
.	.	8qee/	.
8D\ 8F# 8A	.	8dd\L	.
8r	.	8cc#\J	.
8D\ 8F# 8A	.	8dd\L	.
8r	.	8a\J	.
!!LO:LB:g=original	!	!	!
=20	=20	=20	=20
.	.	8qff#/	.
8D\ 8G 8A	.	8ee\L	.
8r	.	8dd#X\J	.
8D\ 8G 8A	.	8ee\L	.
8r	.	8a\J	.
=21	=21	=21	=21
8D\ 8F# 8A	.	8dd\	.
8AA^\L 8A	.	8a^\L	.
8BB^\ 8B	.	8b^\	.
8C#^\J 8c#	.	8cc#^\J	.
=22	=22	=22	=22
!	!	!LO:TX:a:i:t=poco più Allegro.	!
8D\ 8F# 8A 8d	.	8f#\L 8dd	mf
8r	.	8a\ 8ee	.
8D\ 8F# 8A 8d	.	8dd\ 8ff#	.
8r	.	8ee\J 8gg	.
=23	=23	=23	=23
.	.	8qbb/	.
8D\ 8F# 8A 8d	.	8ff#\L 8aa	.
8r	.	8ee#X\J 8gg#X	.
8D\ 8F# 8A 8d	.	8ff#\L 8aa	.
8r	.	8dd\J 8ff#	.
=24	=24	=24	=24
.	.	8qbb/	.
8D\ 8F# 8A 8d	.	8ff#\L 8aa	.
8r	.	8ee#X\J 8gg#X	.
8D\ 8F# 8A 8d	.	8ff#\L 8aa	.
8r	.	8dd\J 8ff#	.
=25	=25	=25	=25
.	.	8qbb/	.
8D\ 8F# 8A 8d	.	8ff#\L 8aa	.
8r	.	8ee#X\J 8gg#X	.
8D\ 8F# 8A 8d	.	8ff#\L 8aa	.
8r	.	8dd\J 8ff#	.
!!LO:LB:g=original	!	!	!
=26	=26	=26	=26
8D\ 8G 8A 8c#	.	8aa'\L	.
8r	.	8gg'\	.
8D\ 8G 8A 8c#	.	8ff#'\	.
8r	.	8ee'\J	.
=27	=27	=27	=27
.	.	8qee/	.
8D\ 8F# 8A 8d	.	8dd\L	.
8r	.	8cc#\J	.
8D\ 8F# 8A 8d	.	8dd\L	.
8r	.	8a\J	.
=28	=28	=28	=28
.	.	8qff#/	.
8D\ 8G 8A 8c#	.	8ee\L	.
8r	.	8dd#X\J	.
8D\ 8G 8A 8c#	.	8ee\L	.
8r	.	8a\J	.
=29	=29	=29	=29
.	.	8qgg/	.
8D\ 8F# 8A 8d	.	8ff#\L	.
8r	.	8ee#X\J	.
8D\ 8F# 8A 8d	.	8ff#\L	.
8r	.	8bb\J	.
=30	=30	=30	=30
8D\ 8G 8A 8c#	.	8aa'\L	.
8r	.	8gg'\	.
8D\ 8G 8A 8c#	.	8ff#'\	.
8r	.	8ee'\J	.
=31	=31	=31	=31
.	.	8qee/	.
8D\ 8F# 8A 8d	.	8dd\L	.
8r	.	8cc#\J	.
8D\ 8F# 8A 8d	.	8dd\L	.
8r	.	8a\J	.
=32	=32	=32	=32
.	.	8qff#/	.
8D\ 8G 8A 8c#	.	8ee\L	.
8r	.	8dd#X\J	.
8D\ 8G 8A 8c#	.	8ee\L	.
8r	.	8a\J	.
!!LO:PB:g=original	!	!	!
=33	=33	=33	=33
!	!	!LO:TX:a:i:t=ancora più	!
8D\L 8F# 8A 8d	.	4dd\	f
8D\ 8F# 8A 8d	.	.	.
8D\ 8F# 8A 8d	.	8cc#'\L	.
8D\J 8F# 8A 8d	.	8dd'\J	.
=34	=34	=34	=34
8D\L 8G 8A 8c#	.	8a'\L 8ee	.
8D\J 8G 8A 8c#	.	8gg'\J	.
8D\L 8G 8A 8c#	.	8a'\L 8ff#	.
8D\J 8G 8A 8c#	.	8a'\J 8ee	.
=35	=35	=35	=35
8D\L 8F# 8A 8d	.	4a^\ 4dd 4ff#	.
8D\ 8F# 8A 8d	.	.	.
8D\ 8F# 8A 8d	.	4a^\ 4ff# 4aa	.
8D\J 8F# 8A 8d	.	.	.
=36	=36	=36	=36
8D\L 8G 8A 8c#	.	8a\L 8ee	.
8D\J 8G 8A 8c#	.	(16ff#\L	.
.	.	16gg\JJ)	.
8D\L 8G 8A 8c#	.	8a\L 8ff#	.
8D\J 8G 8A 8c#	.	8a\J 8ee	.
=37	=37	=37	=37
8D\L 8F# 8A 8d	.	4a^\ 4dd 4ff#	.
8D\ 8F# 8A 8d	.	.	.
8D\ 8F# 8A 8d	.	4a^\ 4ff# 4aa	.
8D\J 8F# 8A 8d	.	.	.
=38	=38	=38	=38
8D\L 8G 8A 8c#	.	8a\L 8ee	.
8D\J 8G 8A 8c#	.	(>16ff#\L	.
.	.	16gg\JJ)	.
8D'\L 8G 8A 8c#	.	8a'\L 8ff#	.
8D\J 8G 8A 8c#	.	8a'\J 8ee	.
=39	=39	=39	=39
8D\ 8F# 8A 8d	.	8dd'\L 8ff#	.
8FF#'/L 8F#	.	8dd'\ 8ddd	.
8GG'/ 8G	.	8cc#'\ 8ccc#	.
8GG#X'/J 8G#X	.	8b'\J 8bb	.
!!LO:LB:g=original	!	!	!
=40	=40	=40	=40
8AA\L 8A	.	8a'\L 8aa	.
8AA#X\ 8A#X	.	8ee'\ 8gg	.
8BB\ 8B	.	8dd'\ 8ff#	.
8C#\J 8c#	.	8a'\J 8ee	.
=41	=41	=41	=41
4D^\ 4d	.	4f#^>/ 4dd	.
4AA^\ 4A	.	4a^\ 4cc# 4ee	.
=42	=42	=42	=42
4D^\ 4d	.	4a^\ 4dd 4ff#	.
4AA^\ 4A	.	4a^\ 4cc# 4ee	.
=43	=43	=43	=43
4D^\ 4d	.	4a^\ 4dd 4ff#	.
4A^\ 4c# 4e	.	4cc#^\ 4ee 4aa	.
=44	=44	=44	=44
4A^\ 4d 4f#	.	4dd^\ 4ff# 4aa	.
4A^\ 4c# 4e	.	4ee^\ 4aa 4ccc#	.
=45	=45	=45	=45
[2D^\ [2F# [2A [2d	.	[2dd^\ [2ff# [2aa [2ddd	ff
=46	=46	=46	=46
2D^\_ 2F#_ 2A_ 2d_	.	2dd^\_ 2ff#_ 2aa_ 2ddd_	.
=47	=47	=47	=47
8D\] 8F#] 8A] 8d]	.	8dd\] 8ff#] 8aa] 8ddd]	.
8DD/L 8D	.	8d/L	>
8DD/ 8D	.	8d/	.
8DD/J 8D	.	8d/J	.
=48	=48	=48	=48
8DD/L 8D	.	8d/L	.
8DD/ 8D	.	8d/	.
8DD/ 8D	.	8d/	.
8DD/J 8D	.	8d/J	]]
!!LO:LB:g=original	!	!	!
=49	=49	=49	=49
*	*	*	*^
!	!	!	!LO:DY:b	!LO:HP:a:t=dimin._:ext=ud
8DD/ 8D	.	8d/	p	>
8r	.	8r	.	.
8DD/ 8D	.	8d/	.	.
8r	.	8r	.	.
*	*	*	*v	*v
=50	=50	=50	=50
8DD/ 8D	.	8d/	.
8r	.	8r	.
!	!	!LO:TX:a:i:t=rall.	!
8DD/ 8D	.	8d/	.
8r	.	8r	.
=51	=51	=51	=51
8DD/ 8D	.	8d/	.
8r	.	8r	.
4r	.	4r	.
=52	=52	=52	=52
8DD/ 8D	.	8d/	.
8r	.	8r	.
4r	.	4r	.
=53	=53	=53	=53
8DD/ 8D	.	8d/	.
8r	.	8r	.
4r	.	4r	.
=54||	=54||	=54||	=54||
*M3/4	*	*M3/4	*
!	!	!LO:TX:a:B:t=Lento.	!
2.e\ 2.g	p	2.r	.
=55	=55	=55	=55
2.d\ 2.f#	.	2.r	.
=56	=56	=56	=56
4.A\ 4.e	.	2.r	.
(8d'\L 8f#	.	.	.
8A'\ 8e	.	.	.
8d'\J) 8f#	.	.	.
=57	=57	=57	=57
[4A;\ [4e	.	2.r;	.
8A\] 8e]	.	.	.
8r	.	.	.
4r	.	.	.
==	==	==	==
*-	*-	*-	*-
!!!system-decoration: {(s1,s2)}
!!!RDF**kern: > = above
!!!RDF**kern: < = below
!!!ENC: Solarz Mateusz
!!!END: 2022-08-03
!!!ENC: Jan Barakat
!!!END: 2022-09-08
!!!YEC: Copyright 2022 Narodowy Instytut Fryderyka Chopina (https://polishscores.org)
!!!YEM: License CC-BY-4.0 (https://creativecommons.org/licenses/by/4.0)
